static/assets/img/icons/theme/communication/write.svg

<svg height="24" viewBox="0 0 24 24" width="24" xmlns="http://www.w3.org/2000/svg"><g fill="none" fill-rule="evenodd"><path d="m0 0h24v24h-24z" opacity="0"/><g fill="#000" fill-rule="nonzero"><path d="m12.2674799 18.2323597-.2589927-12.77383519c-.0080569-.39737659.1419282-.78170621.4170165-1.06858502l2.577513-2.68798645 2.5880585 2.69898391c.2688319.28035415.4184315.65405908.4173186 1.04247612l-.0365676 12.76283773c-.0023687.8267458-.6732446 1.4957022-1.4999938 1.4957022h-2.7046607c-.8165765 0-1.4831389-.6531846-1.4996918-1.4695933z" transform="matrix(-.70710678 -.70710678 .70710678 -.70710678 17.53038 28.665227)"/><path d="m12.9 2c.5522847 0 1 .44771525 1 1s-.4477153 1-1 1h-6.9c-1.1045695 0-2 .8954305-2 2v12c0 1.1045695.8954305 2 2 2h12c1.1045695 0 2-.8954305 2-2v-5c0-.5522847.4477153-1 1-1s1 .4477153 1 1v5c0 2.209139-1.790861 4-4 4h-12c-2.209139 0-4-1.790861-4-4v-12c0-2.209139 1.790861-4 4-4z" opacity=".3"/></g></g></svg>

<svg width="24px" height="24px" viewBox="0 0 24 24" version="1.1" xmlns="http://www.w3.org/2000/svg" xmlns:xlink="http://www.w3.org/1999/xlink">
    <title>Icon For Write</title>
    <g stroke="none" stroke-width="1" fill="none" fill-rule="evenodd">
        <rect opacity="0" x="0" y="0" width="24" height="24"></rect>
        <path d="M12.2674799,18.2323597 L12.0084872,5.45852451 C12.0004303,5.06114792 12.1504154,4.6768183 12.4255037,4.38993949 L15.0030167,1.70195304 L17.5910752,4.40093695 C17.8599071,4.6812911 18.0095067,5.05499603 18.0083938,5.44341307 L17.9718262,18.2062508 C17.9694575,19.0329966 17.2985816,19.701953 16.4718324,19.701953 L13.7671717,19.701953 C12.9505952,19.701953 12.2840328,19.0487684 12.2674799,18.2323597 Z" fill="#000000" fill-rule="nonzero" transform="translate(14.701953, 10.701953) rotate(-135.000000) translate(-14.701953, -10.701953) "></path>
        <path d="M12.9,2 C13.4522847,2 13.9,2.44771525 13.9,3 C13.9,3.55228475 13.4522847,4 12.9,4 L6,4 C4.8954305,4 4,4.8954305 4,6 L4,18 C4,19.1045695 4.8954305,20 6,20 L18,20 C19.1045695,20 20,19.1045695 20,18 L20,13 C20,12.4477153 20.4477153,12 21,12 C21.5522847,12 22,12.4477153 22,13 L22,18 C22,20.209139 20.209139,22 18,22 L6,22 C3.790861,22 2,20.209139 2,18 L2,6 C2,3.790861 3.790861,2 6,2 L12.9,2 Z" fill="#000000" fill-rule="nonzero" opacity="0.3"></path>
    </g>
</svg>
